!!!!SEGMENT: pl-kk--kk-i-69--011_anonim--protexisti-pro-festo-deo-gratias.krn
!!!cenid: 17xx:2292
!!!COM: Anonim
!!!COM-rismID:
!!!CDT:
!!!CNT:
!!!OPR: Protexisti pro festo
!!!OTL: Deo gratias
!!!OMV: 011
!!!PDT:
!!!AGN: Sacred; Mass
!!!SMS-siglum: PL-Kk
!!!SMS-shelfmark: Kk.I.69
!!!SMS-shelfwork: 001-011 M
!!!SMS-variant:
!!!SMS-altvar:
!!!NIFC-rismSourceID: 1001154789
!!!NIFC-islandoraID: pl-kk:15747
!!!URL-pdf-islandora: https://repozytorium.nifc.pl/islandora/object/pl-kk%3A15747/datastream/PDF/view
!!!URL-scan:
!!!ONB-nifc: UWAGA: części Mszy: 1. Protexisti me, 2. Kyrie, 3. Et in terra, 4. Alleluia, 5. Patrem, 6. Posuisti Domine, 7. Sanctus, 8. Benedictus, 9. Agnus Dei, 10. Dona nobis, 11. Deo gratias
!!!AIN: 1 empty 2 tenor
!!!key:
**kern	**text	**kern	**text	**kern	**text
*part3	*part3	*part2	*part2	*part1	*part1
*staff3	*staff3	*staff2	*staff2	*staff1	*staff1
*Iempty	*	*Itenor	*	*Itenor	*
*I"Baſso	*	*I"Tenore Secundo	*	*I"Tenore Primo	*
*I'B	*	*I'T 2	*	*I'T 1	*
*clefF4	*	*clefC4	*	*clefC4	*
*k[]	*	*k[]	*	*k[]	*
*C:	*	*C:	*	*C:	*
*M2/2	*	*M2/2	*	*M2/2	*
*met(c|)	*	*met(c|)	*	*met(c|)	*
*2\right	*	*2\right	*	*2\right	*
=1	=1	=1	=1	=1	=1
2C/	De-	1e	De-	1c	De-
2E\	.	.	.	.	.
=2	=2	=2	=2	=2	=2
4G\	.	1B	.	1d	.
4A\	.	.	.	.	.
4B\	.	.	.	.	.
4G\	.	.	.	.	.
=3	=3	=3	=3	=3	=3
2c\	.	1c	.	1e	.
2C/	.	.	.	.	.
=4	=4	=4	=4	=4	=4
1G	-o	1B	-o	1d	-o
=5	=5	=5	=5	=5	=5
2B\	gra-	2d\	gra-	2f\	gra-
2c\	.	2c\	.	2e\	.
=6	=6	=6	=6	=6	=6
4G\	.	2B\	.	2d\	.
4F\	.	.	.	.	.
4E\	.	2c\	.	2e\	.
4F\	.	.	.	.	.
=7	=7	=7	=7	=7	=7
2.G\	.	2.B\	.	2.d\	.
4G\	-ti-	4B\	-ti-	4d\	-ti-
=8	=8	=8	=8	=8	=8
1C	-as	1G	-as	1e	-as
==	==	==	==	==	==
*-	*-	*-	*-	*-	*-
!!!system-decoration: [(s1,s2,s3)]
!!!ENC: Kamil Watkowski
!!!END: 2021-08-06
